assets/icons/Envelope.svg

<svg xmlns="http://www.w3.org/2000/svg" width="48" height="48" fill="none" xmlns:v="https://vecta.io/nano"><path d="M42 10V8H6v2H2v28h2v2h40v-2h2V10h-4zM20 24v-2h-2v-2h-2v-2h-2v-2h-2v-2h-2v-2h28v2h-2v2h-2v2h-2v2h-2v2h-2v2h-2v2h-4v-2h-2zM8 14v2h2v2h2v2h2v2h2v2h2v2h2v2h2v2h4v-2h2v-2h2v-2h2v-2h2v-2h2v-2h2v-2h2v-2h2v22H6V14h2z" fill="#000"/></svg>

<svg width="48" height="48" viewBox="0 0 48 48" fill="none" xmlns="http://www.w3.org/2000/svg">
<path d="M42 10V8H6V10H2V38H4V40H44V38H46V10H42ZM20 24V22H18V20H16V18H14V16H12V14H10V12H38V14H36V16H34V18H32V20H30V22H28V24H26V26H22V24H20ZM8 14V16H10V18H12V20H14V22H16V24H18V26H20V28H22V30H26V28H28V26H30V24H32V22H34V20H36V18H38V16H40V14H42V36H6V14H8Z" fill="black"/>
</svg>
